X:215
T:Upton Hankie Dance - Bonnets of Blue
M:6/8
L:1/8
K:G
D | G2G BdB | G3 -G2D | G2G BdB | A3 -A3 |
B3G2B | c3 e3 | ded cBA | G3 -G2 :||
F2G A3 | F2 E D3 | A2A ABc | d3 -d2c |
B2A G2F | E2F G2A | BcB AGF | E3 D3 |
G2G BdB | G3 -G2D | G2G BdB | A3 -A3 |
B3G2B | c3 e3 | ded cBA | G3 -G2 ||
